symbols/web/nest_heat_link_e/materialsymbolsoutlined/nest_heat_link_e_wght600gradN25_20px.svg

<svg xmlns="http://www.w3.org/2000/svg" height="20" width="20"><path d="M10 18.396q-1.75 0-3.281-.656-1.531-.657-2.667-1.802-1.135-1.146-1.792-2.678-.656-1.531-.656-3.26 0-1.75.656-3.281.657-1.531 1.802-2.667Q5.208 2.917 6.74 2.26q1.531-.656 3.26-.656 1.75 0 3.281.656 1.531.657 2.667 1.803 1.135 1.145 1.792 2.677.656 1.531.656 3.26 0 1.75-.656 3.281-.657 1.531-1.802 2.667-1.146 1.135-2.678 1.792-1.531.656-3.26.656Zm0-2.188q2.583 0 4.396-1.823 1.812-1.823 1.812-4.385 0-2.583-1.812-4.396Q12.583 3.792 10 3.792q-2.562 0-4.385 1.812Q3.792 7.417 3.792 10q0 2.562 1.823 4.385T10 16.208Zm0-2.729q-1.438 0-2.458-1.031Q6.521 11.417 6.521 10q0-1.438 1.031-2.458Q8.583 6.521 10 6.521q1.438 0 2.458 1.021 1.021 1.02 1.021 2.458 0 1.438-1.021 2.458-1.02 1.021-2.458 1.021Z"/></svg>

<svg xmlns="http://www.w3.org/2000/svg" height="20" width="20"><path d="M10 18.396Q8.25 18.396 6.719 17.74Q5.188 17.083 4.052 15.938Q2.917 14.792 2.26 13.26Q1.604 11.729 1.604 10Q1.604 8.25 2.26 6.719Q2.917 5.188 4.062 4.052Q5.208 2.917 6.74 2.26Q8.271 1.604 10 1.604Q11.75 1.604 13.281 2.26Q14.812 2.917 15.948 4.063Q17.083 5.208 17.74 6.74Q18.396 8.271 18.396 10Q18.396 11.75 17.74 13.281Q17.083 14.812 15.938 15.948Q14.792 17.083 13.26 17.74Q11.729 18.396 10 18.396ZM10 16.208Q12.583 16.208 14.396 14.385Q16.208 12.562 16.208 10Q16.208 7.417 14.396 5.604Q12.583 3.792 10 3.792Q7.438 3.792 5.615 5.604Q3.792 7.417 3.792 10Q3.792 12.562 5.615 14.385Q7.438 16.208 10 16.208ZM10 13.479Q8.562 13.479 7.542 12.448Q6.521 11.417 6.521 10Q6.521 8.562 7.552 7.542Q8.583 6.521 10 6.521Q11.438 6.521 12.458 7.542Q13.479 8.562 13.479 10Q13.479 11.438 12.458 12.458Q11.438 13.479 10 13.479Z"/></svg>
